!!!OTL: I Love My Love in Secret
!!!id: HA003
**kern
*clefF4
*k[f#]
*G:
*M2/2
{8dd
8cc
=1
4b
8a
8g
4.g
8d
=2
4e
8a
8b
4a}
{8dd
8cc
=3
4b
8a
8g
4dd
4g
=4
8cc
8dd
8ee
8dd
4b}
{8a
8g
=5
8cc
8dd
8ee
8dd
8b
8cc
8dd
8b
=6
8cc
8b
8a
8g
4.a}
{8g
=7
8b
8dd
8ee
8g
8dd
8b
8a
8g
=8
4e
8.g
16a
4g}
{8dd
8cc
=9
4b
8a
8g
4.dd
8d
=10
4e
8a
8b
4a}
{8dd
8cc
=11
4b
8a
8g
4dd
4g
=12
4ee
4g
4dd}
{8g
8g
=13
8cc
8dd
8ee
8cc
8b
8cc
8dd
8b
=14
8cc
8b
8a
8g
4a}
{8b
8dd
=15
8.ee
16ff#
8gg
8g
8dd
8b
8a
8g
=16
4e
8.g
16a
4g}
==
*-
!!!minrhy: 16
!!!meter: 2/2
!!!cut: I Love My Love in Secret
!!!key: HA003  16  G 2/2
!!!bem: Vorschlge, Triller, Bindungen weggelassen
!!!fog: a--aw-b--c--av-aw-d--e--
!! Haydn: Volksliedbearbeitungen, Bd1
